src/assets/icons/weeks,fancy,52.svg

<svg width="48" height="48" viewBox="0 0 48 48" fill="none" xmlns="http://www.w3.org/2000/svg">
<rect opacity="0.2" x="4" y="6" width="40" height="40" rx="4" fill="black"/>
<path d="M15.2463 41.2784C19.7804 41.2784 22.8627 38.3253 22.8528 34.2088C22.8627 30.3111 20.1383 27.5071 16.4693 27.5071C14.6795 27.5071 13.1383 28.2528 12.4224 29.2571H12.3031L12.8301 24.1562H21.7292V20.6364H9.28036L8.31587 31.375L12.144 32.0611C12.7704 31.2159 13.9835 30.6889 15.1866 30.6889C17.2349 30.6989 18.7065 32.1804 18.7065 34.3182C18.7065 36.4361 17.2647 37.8977 15.2463 37.8977C13.536 37.8977 12.1539 36.8239 12.0545 35.2429H7.87837C7.95792 38.7628 11.0304 41.2784 15.2463 41.2784ZM25.8556 41H40.3727V37.4801H31.8216V37.3409L34.7946 34.4276C38.9806 30.6094 40.1042 28.7003 40.1042 26.3835C40.1042 22.8537 37.2207 20.358 32.8556 20.358C28.5801 20.358 25.6468 22.9134 25.6568 26.9105H29.7434C29.7335 24.9616 30.9664 23.7685 32.8258 23.7685C34.6156 23.7685 35.948 24.8821 35.948 26.6719C35.948 28.2926 34.9537 29.4062 33.1042 31.1861L25.8556 37.8977V41Z" fill="black"/>
<g opacity="0.4">
<path d="M10 4C10 2.89543 10.8954 2 12 2C13.1046 2 14 2.89543 14 4V8C14 9.10457 13.1046 10 12 10C10.8954 10 10 9.10457 10 8V4Z" fill="black"/>
<path d="M34 4C34 2.89543 34.8954 2 36 2C37.1046 2 38 2.89543 38 4V8C38 9.10457 37.1046 10 36 10C34.8954 10 34 9.10457 34 8V4Z" fill="black"/>
</g>
<path fill-rule="evenodd" clip-rule="evenodd" d="M10 6.00869C7.52043 6.04456 6.11466 6.22849 5.17157 7.17157C4 8.34315 4 10.2288 4 14V16H44V14C44 10.2288 44 8.34315 42.8284 7.17157C41.8853 6.22849 40.4796 6.04456 38 6.00869V8C38 9.10457 37.1046 10 36 10C34.8954 10 34 9.10457 34 8V6H14V8C14 9.10457 13.1046 10 12 10C10.8954 10 10 9.10457 10 8V6.00869Z" fill="black"/>
</svg>

<svg xmlns="http://www.w3.org/2000/svg" width="48" height="48" fill="none" viewBox="0 0 48 48">
  <rect width="40" height="40" x="4" y="6" fill="#000" opacity=".2" rx="4"/>
  <path fill="#000" d="M15.246 41.278c4.534 0 7.617-2.953 7.607-7.07.01-3.897-2.715-6.7-6.384-6.7-1.79 0-3.33.745-4.047 1.75h-.119l.527-5.102h8.9v-3.52H9.28l-.964 10.739 3.828.686c.626-.845 1.84-1.372 3.043-1.372 2.048.01 3.52 1.491 3.52 3.63 0 2.117-1.442 3.579-3.46 3.579-1.711 0-3.093-1.074-3.192-2.655H7.878c.08 3.52 3.152 6.035 7.368 6.035zM25.856 41h14.517v-3.52h-8.551v-.14l2.973-2.912c4.186-3.819 5.31-5.728 5.31-8.044 0-3.53-2.884-6.026-7.25-6.026-4.275 0-7.208 2.555-7.198 6.552h4.086c-.01-1.948 1.223-3.142 3.083-3.142 1.79 0 3.122 1.114 3.122 2.904 0 1.62-.994 2.734-2.844 4.514l-7.248 6.712V41z"/>
  <g opacity=".4">
    <path fill="#000" d="M10 4a2 2 0 114 0v4a2 2 0 11-4 0V4zM34 4a2 2 0 114 0v4a2 2 0 11-4 0V4z"/>
  </g>
  <path fill="#000" fill-rule="evenodd" d="M10 6.009c-2.48.036-3.885.22-4.828 1.163C4 8.343 4 10.229 4 14v2h40v-2c0-3.771 0-5.657-1.172-6.828-.943-.944-2.348-1.127-4.828-1.163V8a2 2 0 11-4 0V6H14v2a2 2 0 11-4 0V6.009z" clip-rule="evenodd"/>
</svg>
